suite-common/icons/assets/icons/copy.svg

<svg xmlns="http://www.w3.org/2000/svg" xml:space="preserve" fill="none" viewBox="0 0 16 16">
  <path fill="#000" fill-rule="evenodd" d="M5.62 1.811a1.28 1.28 0 0 0-.849.977 3 3 0 0 0-.019.519c.009.301.02.381.071.493a.69.69 0 0 0 .63.434c.166.011.215.003.338-.053.296-.136.448-.379.449-.717v-.203l.222-.014c.263-.016.421-.078.564-.221a.7.7 0 0 0 .21-.519.73.73 0 0 0-.383-.663c-.116-.069-.133-.071-.6-.077-.408-.005-.502.001-.633.044m3.116-.009c-.509.187-.638.88-.231 1.247.208.187.227.191.988.191h.68l.152-.075a.742.742 0 0 0-.018-1.342c-.129-.06-.156-.062-.8-.061-.508.001-.692.011-.771.04m3.463.02a.76.76 0 0 0-.38.387c-.056.123-.064.172-.053.338.027.416.302.667.767.699l.207.014.014.207c.032.465.283.74.699.767.166.011.215.003.338-.053a.75.75 0 0 0 .389-.389c.063-.136.065-.159.056-.628l-.009-.487-.103-.207a1.25 1.25 0 0 0-.594-.594l-.207-.103-.495-.007c-.474-.008-.5-.006-.629.056M2.75 4.776c-.308.06-.619.278-.805.563-.2.308-.188.045-.18 4.236l.008 3.748.103.207c.134.271.323.46.594.594l.207.103 3.748.008c3.429.007 3.763.004 3.916-.037.43-.114.8-.519.885-.968.018-.094.027-1.402.027-3.734-.001-3.913.004-3.801-.152-4.089a1.5 1.5 0 0 0-.508-.508c-.289-.156-.172-.152-4.113-.149-1.987.001-3.666.013-3.73.026m10.522.516a.75.75 0 0 0-.5.568c-.047.227-.022 1.298.033 1.424a.9.9 0 0 0 .382.387.8.8 0 0 0 .657-.012.82.82 0 0 0 .366-.431c.019-.063.03-.343.029-.751 0-.596-.005-.66-.054-.77-.158-.349-.572-.537-.913-.415M9.753 9.5l.007 3.247H3.253V6.24l3.247.007 3.247.006zm3.548-.717c-.35.098-.554.401-.554.823v.154h-.207q-.516.002-.721.449c-.056.123-.064.172-.053.338a.69.69 0 0 0 .434.63c.112.051.192.062.493.071.201.006.431-.002.519-.019.465-.086.868-.45.987-.889.037-.135.044-.256.037-.621-.009-.434-.012-.457-.08-.572a1 1 0 0 0-.147-.192.8.8 0 0 0-.708-.172"/>
</svg>

<svg xmlns="http://www.w3.org/2000/svg" xml:space="preserve" fill="none" viewBox="0 0 16 16"><path d="M5.620 1.811 C 5.188 1.952,4.855 2.335,4.771 2.788 C 4.754 2.876,4.746 3.106,4.752 3.307 C 4.761 3.608,4.772 3.688,4.823 3.800 C 4.945 4.071,5.154 4.215,5.453 4.234 C 5.619 4.245,5.668 4.237,5.791 4.181 C 6.087 4.045,6.239 3.802,6.240 3.464 L 6.240 3.261 6.462 3.247 C 6.725 3.231,6.883 3.169,7.026 3.026 C 7.170 2.882,7.236 2.717,7.236 2.507 C 7.236 2.217,7.108 1.995,6.853 1.844 C 6.737 1.775,6.720 1.773,6.253 1.767 C 5.845 1.762,5.751 1.768,5.620 1.811 M8.736 1.802 C 8.227 1.989,8.098 2.682,8.505 3.049 C 8.713 3.236,8.732 3.240,9.493 3.240 L 10.173 3.240 10.325 3.165 C 10.888 2.889,10.877 2.090,10.307 1.823 C 10.178 1.763,10.151 1.761,9.507 1.762 C 8.999 1.763,8.815 1.773,8.736 1.802 M12.199 1.822 C 12.025 1.904,11.900 2.032,11.819 2.209 C 11.763 2.332,11.755 2.381,11.766 2.547 C 11.793 2.963,12.068 3.214,12.533 3.246 L 12.740 3.260 12.754 3.467 C 12.786 3.932,13.037 4.207,13.453 4.234 C 13.619 4.245,13.668 4.237,13.791 4.181 C 13.972 4.098,14.098 3.972,14.180 3.792 C 14.243 3.656,14.245 3.633,14.236 3.164 L 14.227 2.677 14.124 2.470 C 13.990 2.199,13.801 2.010,13.530 1.876 L 13.323 1.773 12.828 1.766 C 12.354 1.758,12.328 1.760,12.199 1.822 M2.750 4.776 C 2.442 4.836,2.131 5.054,1.945 5.339 C 1.745 5.647,1.757 5.384,1.765 9.575 L 1.773 13.323 1.876 13.530 C 2.010 13.801,2.199 13.990,2.470 14.124 L 2.677 14.227 6.425 14.235 C 9.854 14.242,10.188 14.239,10.341 14.198 C 10.771 14.084,11.141 13.679,11.226 13.230 C 11.244 13.136,11.253 11.828,11.253 9.496 C 11.252 5.583,11.257 5.695,11.101 5.407 C 11.006 5.229,10.771 4.994,10.593 4.899 C 10.304 4.743,10.421 4.747,6.480 4.750 C 4.493 4.751,2.814 4.763,2.750 4.776 M13.272 5.292 C 13.007 5.386,12.828 5.590,12.772 5.860 C 12.725 6.087,12.750 7.158,12.805 7.284 C 12.871 7.431,13.038 7.601,13.187 7.671 C 13.386 7.763,13.652 7.759,13.844 7.659 C 14.003 7.575,14.162 7.389,14.210 7.228 C 14.229 7.165,14.240 6.885,14.239 6.477 C 14.239 5.881,14.234 5.817,14.185 5.707 C 14.027 5.358,13.613 5.170,13.272 5.292 M9.753 9.500 L 9.760 12.747 6.507 12.747 L 3.253 12.747 3.253 9.493 L 3.253 6.240 6.500 6.247 L 9.747 6.253 9.753 9.500 M13.301 8.783 C 12.951 8.881,12.747 9.184,12.747 9.606 L 12.747 9.760 12.540 9.760 C 12.197 9.761,11.955 9.911,11.819 10.209 C 11.763 10.332,11.755 10.381,11.766 10.547 C 11.785 10.846,11.929 11.055,12.200 11.177 C 12.312 11.228,12.392 11.239,12.693 11.248 C 12.894 11.254,13.124 11.246,13.212 11.229 C 13.677 11.143,14.080 10.779,14.199 10.340 C 14.236 10.205,14.243 10.084,14.236 9.719 C 14.227 9.285,14.224 9.262,14.156 9.147 C 14.117 9.081,14.051 8.994,14.009 8.955 C 13.841 8.795,13.529 8.719,13.301 8.783 " stroke="none" fill-rule="evenodd" fill="black"></path></svg>
